X: 20044
Q: "With spirit."
M: 6/8
L: 1/8
K: Bb
[|\
z2F |\
e3 cde | d3 dcB | A2A AGA | B3- B2F |\
e3 cde | d3 dcB | A2A AGA | Bdc BA"^D.C."G |]



